svg/fluentui-system-icons/ic_fluent_stack_add_24_filled.svg

<svg width="24" height="24" viewBox="0 0 24 24" fill="none" xmlns="http://www.w3.org/2000/svg">
<path d="M12 7.5C12 4.46243 9.53757 2 6.5 2C3.46243 2 1 4.46243 1 7.5C1 10.5376 3.46243 13 6.5 13C9.53757 13 12 10.5376 12 7.5ZM7.00065 8.00001L7.00111 10.5035C7.00111 10.7797 6.77725 11.0035 6.50111 11.0035C6.22497 11.0035 6.00111 10.7797 6.00111 10.5035L6.00065 8.00001H3.4956C3.21973 8.00001 2.99609 7.77615 2.99609 7.50001C2.99609 7.22387 3.21973 7.00001 3.4956 7.00001H6.00046L6 4.49927C6 4.22313 6.22386 3.99927 6.5 3.99927C6.77614 3.99927 7 4.22313 7 4.49927L7.00046 7.00001H9.49659C9.77246 7.00001 9.99609 7.22387 9.99609 7.50001C9.99609 7.77615 9.77246 8.00001 9.49659 8.00001H7.00065ZM6.5 14C10.0899 14 13 11.0899 13 7.5C13 6.6141 12.8228 5.76959 12.5018 5H15C16.1046 5 17 5.89543 17 7V14C17 15.1046 16.1046 16 15 16H4C2.89543 16 2 15.1046 2 14V12.1904C3.16789 13.3112 4.75351 14 6.5 14ZM6.50001 18.5C5.56809 18.5 4.78504 17.8626 4.56302 17H15.5C16.8807 17 18 15.8807 18 14.5V7.56299C18.8626 7.78501 19.5 8.56806 19.5 9.49998V14.5C19.5 16.7091 17.7091 18.5 15.5 18.5H6.50001ZM9.00001 21C8.06809 21 7.28504 20.3626 7.06302 19.5H16.25C18.5972 19.5 20.5 17.5972 20.5 15.25V10.063C21.3626 10.285 22 11.0681 22 12V15.25C22 18.4256 19.4256 21 16.25 21H9.00001Z" fill="#212121"/>
</svg>

<svg xmlns="http://www.w3.org/2000/svg" width="24" height="24"><path d="M12 7.5a5.5 5.5 0 1 0-11 0 5.5 5.5 0 0 0 11 0ZM7 8l.001 2.504a.5.5 0 1 1-1 0V8H3.496a.5.5 0 0 1 0-1H6V4.5a.5.5 0 0 1 1 0V7h2.497a.5.5 0 0 1 0 1H7Zm-.5 6a6.5 6.5 0 0 0 6.002-9H15a2 2 0 0 1 2 2v7a2 2 0 0 1-2 2H4a2 2 0 0 1-2-2v-1.81A6.478 6.478 0 0 0 6.5 14Zm0 4.5A2 2 0 0 1 4.563 17H15.5a2.5 2.5 0 0 0 2.5-2.5V7.563A2 2 0 0 1 19.5 9.5v5a4 4 0 0 1-4 4h-9ZM9 21a2 2 0 0 1-1.937-1.5h9.187a4.25 4.25 0 0 0 4.25-4.25v-5.187A2 2 0 0 1 22 12v3.25A5.75 5.75 0 0 1 16.25 21H9Z"/></svg>
